svg/emoji_u1fad1.svg

<?xml version="1.0" encoding="utf-8"?>
<!-- Generator: Adobe Illustrator 24.0.3, SVG Export Plug-In . SVG Version: 6.00 Build 0)  -->
<svg version="1.1" id="Layer_5" xmlns="http://www.w3.org/2000/svg" xmlns:xlink="http://www.w3.org/1999/xlink" x="0" y="0"
	 viewBox="0 0 128 128" style="enable-background:new 0 0 128 128;" xml:space="preserve">
<g>
	<g>
		<path style="fill:#7CB342;" d="M41.94,35.98c0,0-8.71-2.65-15.91,5.41c-8.37,9.38-4.22,23.7-0.42,34.32s5.54,14.43,7.44,23.44
			c1.43,6.74,3.02,18.74,15.09,22.64c8.44,2.72,17.13-3.43,17.13-3.43s3.57,3.99,11.45,4.94c8.53,1.02,17.58-1.63,20.73-9.07
			c1.65-3.89,3.25-16.36,4.38-24.29c1.48-10.4,6.77-21.69,8.09-30.64c1.12-7.64-0.76-25.31-24.47-25.78
			c-8.29-0.16-17.61,3.13-17.61,3.13s-7.3-3.83-12.87-4.45C44.25,31,41.94,35.98,41.94,35.98z"/>
		<path style="fill:#558B2F;" d="M96.97,35.57c-3.06-1.34-6.72-2.58-13.27-2.99c-9.28-0.58-15.85,4.06-15.85,4.06
			s-7.3-3.83-12.87-4.45c-10.73-1.2-14.03,3.57-14.03,3.57s1.75,0.3,4.57,1.34c2.29,0.84,1.44,2.88-0.45,3.07
			c-3.71,0.37-6.74,2.81-7.11,4.13c0,0,5.93-2.55,12.11-0.6c8.22,2.6,10.44,8.7,10.44,8.7s4.63-5.4,15.63-7.9
			c10.46-2.38,17.98,2.13,17.98,2.13c-0.61-2.64-2.12-3.96-3.47-5.22c-2.43-2.27-1.63-4.26,0.85-4.96
			C93.56,35.87,96.97,35.57,96.97,35.57z"/>
		<g>
			<g>
				<path style="fill:#E0E080;" d="M40.44,11.17c0.09,4.78,3.73,7,5.4,7.1c3.38,0.19,5.89-3.91,12.19,2.14
					c2.56,2.46,3.56,5.96,3.48,9.44c-0.03,1.15,0.25,5.45-1.77,6.41c-0.63,0.3-1.05,0.53-3.01-0.22c-2.19-0.84-4.14,1.24-4.14,1.24
					l3.76,4.29l9.31,3.02L75,42.73l5.4-4.75c0,0-2.51-1.95-4.69-1.17c-1.18,0.42-3.46-0.27-3.47-1.65
					c-0.04-2.91,0.08-5.68-0.46-8.58c-0.9-4.79-2.94-9.37-6.21-13.01c-4.69-5.22-11.4-7.93-18.21-9.03
					C41.77,3.65,40.35,6.45,40.44,11.17z"/>
				<path style="fill:#C4C451;" d="M62.27,10.55c-4.29-3.28-9.57-5.15-14.92-6.01c-1.8-0.29-3.16-0.19-4.18,0.22
					c2.08,0.05,6.11,1.07,12.62,5.56c4.1,2.82,12.2,12.95,5.46,23.42c-0.18,0.87-0.5,1.66-1.04,2.16c1.67-0.75,4.93-3.32,5.67-10.16
					C66.66,18.5,64.94,13.72,62.27,10.55z"/>
			</g>
		</g>
		<path style="opacity:0.6;fill:#33691E;" d="M57.63,76.34c-0.08,3.79,0.53,12.25,2.89,24.3c2.01,10.26-0.03,17.71-2.7,21.04
			c4.32-1.17,7.44-3.31,7.44-3.31s1.11-4.12,1.18-8.33c0.09-5.06-2.02-15.22-4.49-23.28c-1.74-5.66-2.26-14.2-2.34-19
			C59.61,67.75,57.77,69.49,57.63,76.34z"/>
	</g>
	<g style="opacity:0.75;">
		<path style="fill:#BBE68B;" d="M51.85,63.26c-1.06,0.12-2.02-0.55-2.82-1.2c-2.92-2.39-4.58-4.39-7.86-6.38
			c-2.54-1.54-7.55-2.58-5.87-6.51c0.81-1.89,3.92-2.13,6.03-1.77c7.35,1.24,10.62,5.56,12.17,10.96c0.27,0.94,0.63,1.89,0.42,2.86
			c-0.2,0.96-0.98,1.89-2.02,2.04C51.89,63.26,51.87,63.26,51.85,63.26z"/>
	</g>
	<path style="opacity:0.75;fill:#BBE68B;" d="M74.85,52.59c4.84-2.88,11.98-2.82,17.96,0.24c1.48,0.76,2.9,1.75,3.76,3.18
		c0.65,1.08,0.82,2.7-0.21,3.43c-0.86,0.6-2.04,0.24-3.04-0.08c-6-1.9-12.79-1.18-18.25,1.95c-2.06,1.18-6.48,5.55-7.78,2.49
		C66,60.71,68.83,56.17,74.85,52.59z"/>
</g>
</svg>

<?xml version="1.0" encoding="UTF-8" standalone="no"?>
<!DOCTYPE svg PUBLIC "-//W3C//DTD SVG 1.1//EN" "http://www.w3.org/Graphics/SVG/1.1/DTD/svg11.dtd">
<svg width="100%" height="100%" viewBox="0 0 128 128" version="1.1" xmlns="http://www.w3.org/2000/svg" xmlns:xlink="http://www.w3.org/1999/xlink" xml:space="preserve" xmlns:serif="http://www.serif.com/" style="fill-rule:evenodd;clip-rule:evenodd;stroke-linejoin:round;stroke-miterlimit:2;">
    <g>
        <path d="M41.214,35.812C41.04,35.776 40.95,35.76 40.95,35.76C40.95,35.76 44.25,30.99 54.98,32.19C60.55,32.81 67.85,36.64 67.85,36.64C67.85,36.64 74.42,32 83.7,32.58C90.059,32.978 93.694,34.158 96.701,35.453C109.765,40.324 110.828,53.107 109.92,59.3C108.6,68.25 103.31,79.54 101.83,89.94C100.7,97.87 99.1,110.34 97.45,114.23C94.3,121.67 85.25,124.32 76.72,123.3C68.84,122.35 65.27,118.36 65.27,118.36C65.27,118.36 56.58,124.51 48.14,121.79C36.07,117.89 34.48,105.89 33.05,99.15C31.15,90.14 29.41,86.33 25.61,75.71C21.81,65.09 17.66,50.77 26.03,41.39C31.987,34.722 38.977,35.384 41.214,35.812ZM41.94,35.98L41.94,35.98L41.931,35.978L41.94,35.98Z" style="fill:rgb(124,179,66);fill-rule:nonzero;"/>
        <path d="M96.97,35.57C93.91,34.23 90.25,32.99 83.7,32.58C74.42,32 67.85,36.64 67.85,36.64C67.85,36.64 60.55,32.81 54.98,32.19C44.25,30.99 40.95,35.76 40.95,35.76C40.95,35.76 42.7,36.06 45.52,37.1C47.81,37.94 46.96,39.98 45.07,40.17C41.36,40.54 38.33,42.98 37.96,44.3C37.96,44.3 43.89,41.75 50.07,43.7C58.29,46.3 60.51,52.4 60.51,52.4C60.51,52.4 65.14,47 76.14,44.5C86.6,42.12 94.12,46.63 94.12,46.63C93.51,43.99 92,42.67 90.65,41.41C88.22,39.14 89.02,37.15 91.5,36.45C93.56,35.87 96.97,35.57 96.97,35.57Z" style="fill-opacity:0.3;fill-rule:nonzero;"/>
        <path d="M40.44,11.17C40.53,15.95 44.17,18.17 45.84,18.27C49.22,18.46 51.73,14.36 58.03,20.41C60.59,22.87 61.59,26.37 61.51,29.85C61.48,31 61.76,35.3 59.74,36.26C59.11,36.56 58.69,36.79 56.73,36.04C54.54,35.2 52.59,37.28 52.59,37.28L56.35,41.57L65.66,44.59L75,42.73L80.4,37.98C80.4,37.98 77.89,36.03 75.71,36.81C74.53,37.23 72.25,36.54 72.24,35.16C72.2,32.25 72.32,29.48 71.78,26.58C70.88,21.79 68.84,17.21 65.57,13.57C60.88,8.35 54.17,5.64 47.36,4.54C41.77,3.65 40.35,6.45 40.44,11.17Z" style="fill:rgb(224,224,128);fill-rule:nonzero;"/>
        <path d="M57.63,76.34C57.55,80.13 58.16,88.59 60.52,100.64C62.53,110.9 60.49,118.35 57.82,121.68C62.14,120.51 65.26,118.37 65.26,118.37C65.26,118.37 66.37,114.25 66.44,110.04C66.53,104.98 64.42,94.82 61.95,86.76C60.21,81.1 59.69,72.56 59.61,67.76C59.61,67.75 57.77,69.49 57.63,76.34Z" style="fill-opacity:0.18;fill-rule:nonzero;"/>
    </g>
</svg>
